packages/IcoMoon/src/HackernewsIcon/index.svg

<svg version="1.1" xmlns="http://www.w3.org/2000/svg" width="16" height="16" viewBox="0 0 16 16">
<path d="M0 0v16h16v-16h-16zM8.5 9.125v3.375h-1v-3.375l-2.734-5.125h1.134l2.1 3.938 2.1-3.938h1.134l-2.734 5.125z"></path>
</svg>

<svg xmlns="http://www.w3.org/2000/svg" viewBox="0 0 16 16">
  <path d="M0 0v16h16V0H0zm8.5 9.125V12.5h-1V9.125L4.766 4H5.9L8 7.938 10.1 4h1.134L8.5 9.125z"/>
</svg>
